X: 9427
T: Danny Ab's
R: slide
M: 12/8
K: Gmajor
|:A|B2B cBc d3 d2e|dBG dBG ABA AGA|BAB cBc d3 d2g|fed cBA G3 G2:|
|:f|g2d B2g fed c2A|ded c2A e2d B2d|g2d B2g fed c2B|ABc def g3 g2:|

